assets/images/services-img2.svg

<svg width="114" height="114" viewBox="0 0 114 114" fill="none" xmlns="http://www.w3.org/2000/svg">
<g clip-path="url(#clip0_6888_26824)">
<path fill-rule="evenodd" clip-rule="evenodd" d="M47.7334 7.25496C43.2547 8.04533 38.9267 10.3119 36.0886 13.3536C34.6153 14.9326 33.9135 16.0153 33.1558 17.8787L32.6544 19.1121L31.3892 19.5417C26.6002 21.1672 22.175 27.5844 21.4552 33.9478C21.2868 35.4355 21.455 38.3865 21.7336 38.838C21.7801 38.9133 21.4524 39.2277 21.0057 39.5364C18.9627 40.9486 16.6089 44.9012 15.6665 48.5022C14.9641 51.1864 14.7868 55.5541 15.2819 57.9812C15.6894 59.9802 16.5546 62.427 17.306 63.7057L17.8561 64.6418L16.9366 66.4767C15.6259 69.0925 15.1379 71.0286 15.0325 74.0335C14.8796 78.3873 15.9159 81.9515 18.4519 85.7925C19.664 87.6286 22.065 89.9609 23.8238 91.0112C25.2766 91.8786 25.3001 91.9054 25.5338 92.9657C25.8872 94.5699 26.8265 96.7083 27.9013 98.3564C31.9721 104.598 40.1466 108.008 47.9862 106.736C50.1673 106.382 52.7087 105.563 54.6229 104.598L55.9975 103.906L57.3721 104.598C59.2863 105.563 61.8281 106.382 64.0089 106.736C71.8484 108.008 80.0229 104.598 84.0938 98.3564C85.1684 96.7083 86.1079 94.5699 86.4612 92.9657C86.695 91.9054 86.7184 91.8786 88.1714 91.0112C89.9302 89.9609 92.3313 87.6286 93.543 85.7925C96.079 81.9515 97.1155 78.3873 96.9626 74.0335C96.8572 71.0286 96.369 69.0925 95.0583 66.4767L94.1388 64.6418L94.689 63.7057C95.4405 62.427 96.3058 59.9802 96.7133 57.9812C97.2083 55.5541 97.031 51.1864 96.3286 48.5022C95.3863 44.9012 93.0324 40.9486 90.9894 39.5364C90.5426 39.2277 90.215 38.9133 90.2616 38.838C90.3079 38.7627 90.4318 38.007 90.5372 37.1584C91.0151 33.3048 89.7632 28.9378 87.0386 24.9565C85.1196 22.1522 82.9944 20.3647 80.6059 19.546L79.3407 19.1121L78.8394 17.8787C78.0817 16.0153 77.3797 14.9326 75.9064 13.3536C71.3201 8.43797 63.2201 5.88627 57.218 7.46623C56.0839 7.76467 55.9111 7.76448 54.7771 7.46271C53.1169 7.02081 49.6402 6.9184 47.7334 7.25496ZM54.2889 9.50607L55.0212 9.72516V16.1656C55.0212 19.7078 54.9804 22.606 54.9303 22.606C54.8805 22.606 54.419 22.3387 53.9051 22.0119C52.6165 21.1922 51.1873 20.8162 49.3605 20.8162C47.5022 20.8162 46.0893 21.0888 43.9596 21.8583C42.1416 22.515 41.6375 22.9414 41.8195 23.6675C42.0508 24.5898 42.5871 24.6613 44.351 24.0047C46.6192 23.1603 47.5156 22.9569 49.0653 22.9346C51.4497 22.9002 53.1066 23.6419 54.3807 25.3141L55.0212 26.1543V43.436C55.0212 52.9409 54.9746 60.7177 54.9174 60.7177C54.8606 60.7177 54.5388 60.4038 54.2025 60.0206C53.3706 59.0722 51.6453 57.767 50.0998 56.9167C46.9301 55.1728 41.9456 53.9225 41.0682 54.6512C40.7484 54.917 40.6738 55.5786 40.9198 55.9657C41.1083 56.2625 42.0253 56.6131 42.6123 56.6131C43.5464 56.6131 46.596 57.6286 48.5611 58.5935C50.2633 59.4296 50.8565 59.8522 52.1958 61.1812C53.0761 62.0547 54.0711 63.2535 54.4071 63.8444L55.0176 64.9196L55.0196 73.7467L55.0212 82.5738L54.0936 83.2506C52.0734 84.7241 50.0369 85.4528 47.2093 85.7138C45.291 85.8912 44.8671 86.1044 44.8671 86.8915C44.8671 87.6815 45.2102 87.8841 46.5487 87.8841C48.9282 87.8841 52.2234 86.9738 54.0898 85.8012C54.4906 85.5493 54.8638 85.3435 54.9197 85.3435C54.9755 85.3435 55.0212 89.0744 55.0212 93.6351V101.927L53.9366 102.515C52.5317 103.276 50.5861 104.011 48.87 104.427C46.8981 104.906 42.5338 104.907 40.4961 104.429C37.1778 103.65 34.2523 102.083 31.9127 99.8309C29.6744 97.6757 28.4199 95.5557 27.6874 92.6889L27.301 91.177L27.8081 90.1657C29.4172 86.9567 31.8216 85.7364 34.3396 86.8512C35.4099 87.3251 36.1044 88.1844 37.364 90.5938C39.6306 94.9302 42.4492 96.637 47.937 96.997C49.8785 97.1244 49.902 97.1209 50.2196 96.6357C50.4595 96.2693 50.4936 96.0222 50.3548 95.657C50.1217 95.0431 49.7979 94.9199 48.4146 94.9199C47.806 94.9196 46.6928 94.797 45.9411 94.6473C42.2258 93.9077 41.0847 92.9728 38.8043 88.8012C37.5567 86.5193 36.4311 85.3806 34.8293 84.7809C33.5706 84.3096 31.9092 84.2118 30.698 84.5386C29.1106 84.9664 27.1909 86.7454 26.1958 88.7112L25.7154 89.6596L24.9105 89.2115C23.6871 88.5306 21.2185 86.1135 20.2232 84.6218C18.0963 81.4341 17.3209 79.0709 17.1897 75.3757C17.1114 73.168 17.1609 72.466 17.4945 71.076C17.9668 69.107 18.4349 67.9135 18.5673 68.3399C20.2464 73.738 22.8484 76.9457 27.2452 79.0373C29.2416 79.987 30.1342 80.1315 30.5437 79.5709C31.1744 78.7077 30.781 78.2351 28.7146 77.3741C25.0241 75.8367 22.3815 72.9512 21.0375 68.9912C20.446 67.2483 20.3841 66.8512 20.3728 64.7241C20.3618 62.6541 20.4153 62.2573 20.827 61.3454C21.4521 59.9609 22.677 58.9044 24.1298 58.4964C25.2598 58.1789 27.6111 58.1035 28.7571 58.348C29.3117 58.466 29.349 58.5354 29.4562 59.6438C29.7079 62.2435 30.8964 64.5525 33.1347 66.7912C34.7881 68.4447 36.4637 69.6464 38.3432 70.5267C39.5397 71.087 39.626 71.1006 40.0864 70.7983C40.5615 70.487 40.7158 69.8393 40.4217 69.3922C40.3428 69.2722 39.8828 68.9747 39.3995 68.7312C35.1746 66.6018 32.2037 63.2818 31.5989 60.0141C30.9493 56.5028 32.9998 53.2464 37.7396 50.2631C42.4334 47.3089 45.994 44.2406 47.5654 41.796C49.8162 38.2951 49.5439 35.2448 46.7477 32.6266C44.018 30.071 41.277 29.6543 37.3173 31.1932C35.4722 31.9103 33.2378 33.2362 32.8335 33.854C32.5452 34.2941 32.5458 34.3721 32.8399 34.8213C33.2849 35.501 33.8686 35.441 35.3277 34.5658C37.9242 33.0085 40.5285 32.2101 42.1961 32.4605C43.8138 32.7032 45.811 34.2347 46.5497 35.7985C47.1193 37.0047 47.1315 37.7197 46.6063 39.1247C45.6159 41.7741 42.7029 44.4989 36.6198 48.4667C33.0451 50.7983 31.5122 52.3035 30.3765 54.5973L29.5705 56.2257L27.7839 56.0999C23.4794 55.797 20.1445 57.3731 18.9457 60.277C18.7573 60.7335 18.5407 61.1073 18.4644 61.1076C18.2701 61.1086 17.5831 58.8125 17.3129 57.2593C16.9754 55.3199 17.1965 50.8247 17.7196 48.9909C18.4431 46.4547 19.8535 43.7618 21.23 42.2889C21.9041 41.5677 22.5464 40.9777 22.6571 40.9777C22.7678 40.9777 23.2874 41.3793 23.8115 41.8699C24.3356 42.3606 25.3553 43.0399 26.0774 43.3796C27.2172 43.9154 27.6478 44.0067 29.3453 44.0712C31.0631 44.1367 31.4896 44.0825 32.8602 43.6244C35.4755 42.7502 37.4467 41.4999 37.4467 40.7147C37.4467 40.2318 36.907 39.6093 36.4889 39.6102C36.3177 39.6106 35.6942 39.9006 35.1035 40.2551C31.1535 42.6247 27.8126 42.5918 25.0474 40.1554C23.9904 39.2242 23.8371 38.8917 23.5666 36.9469C22.7077 30.7646 28.1373 21.8935 33.1439 21.3001C33.6831 21.2362 34.1988 21.0861 34.29 20.9667C34.3814 20.8471 34.6622 20.0942 34.9145 19.2933C36.3571 14.7115 41.2957 10.8349 47.4055 9.48848C49.2352 9.08528 52.9139 9.09466 54.2889 9.50607ZM64.4919 9.49063C69.2093 10.4702 73.4652 13.1128 75.6919 16.4455C76.2221 17.2384 76.808 18.3469 76.9946 18.9087C77.3283 19.9142 77.3263 19.9521 76.8687 21.3171C76.252 23.1554 76.209 26.4106 76.7787 28.149C77.1555 29.299 78.2324 31.1182 79.0221 31.9385C79.5774 32.5154 80.3142 32.5057 80.7003 31.916C81.0597 31.3666 80.9315 30.9783 79.9317 29.591C78.4745 27.5687 77.9963 24.6711 78.7469 22.4098C79.139 21.2278 79.3963 21.184 80.9803 22.0291C84.475 23.8932 87.7587 29.162 88.4149 33.9572C88.6381 35.5907 88.4145 38.2567 88.0134 38.7405C87.3865 39.4967 84.0736 40.3841 81.871 40.3857C78.2446 40.3883 75.5737 38.7426 74.0346 35.5569C73.6312 34.7224 73.1729 33.8857 73.0159 33.6975C72.4259 32.9905 71.4241 33.5079 71.4241 34.5195C71.4241 35.2993 72.8261 38.0044 73.8105 39.1239C77.1192 42.886 82.8624 43.5412 88.9422 40.8509C89.2859 40.6989 91.2312 42.6144 92.1344 43.9944C95.1553 48.6102 95.7717 56.1393 93.5402 61.167L93.0372 62.3006L92.4019 61.1102C91.5694 59.5515 90.2536 58.0286 88.781 56.9209C87.5117 55.9657 87.0595 55.8457 86.5713 56.3338C85.981 56.9247 86.2341 57.3893 88.1933 59.3125C90.6554 61.7299 91.3899 63.1115 91.502 65.536C91.6549 68.8467 90.217 71.5493 86.4557 75.0209C84.651 76.6867 84.4346 77.1009 85.0255 77.7544C85.577 78.3641 86.1252 78.1728 87.5772 76.8641C90.8452 73.918 92.2214 71.9709 93.3947 68.6328C93.5129 68.2973 93.5816 68.3554 93.8825 69.0464C95.0526 71.7341 95.1846 76.5412 94.1748 79.6754C93.5363 81.657 92.964 82.8354 91.7718 84.6218C90.7765 86.1135 88.3079 88.5306 87.0846 89.2115L86.2797 89.6596L85.7613 88.6357C85.0596 87.2502 83.304 85.4522 82.0553 84.8406C79.9773 83.8231 76.9448 84.3512 75.1356 86.0451C74.5938 86.5522 73.8236 87.6438 73.1909 88.8012C70.9106 92.9728 69.7691 93.9077 66.0541 94.6473C65.3022 94.797 64.1891 94.9196 63.5804 94.9199C62.1971 94.9199 61.8734 95.0431 61.6402 95.657C61.5018 96.0222 61.5355 96.2693 61.7758 96.6357C62.0931 97.1209 62.1165 97.1244 64.058 96.997C69.5459 96.637 72.3645 94.9302 74.6311 90.5938C75.8907 88.1844 76.5851 87.3251 77.6555 86.8512C80.1735 85.7364 82.5779 86.9567 84.1869 90.1657L84.6941 91.177L84.3077 92.6889C83.5751 95.5557 82.3206 97.6757 80.0823 99.8309C77.7429 102.083 74.8173 103.65 71.499 104.429C69.4614 104.907 65.097 104.906 63.125 104.427C61.409 104.011 59.4633 103.276 58.0585 102.515L56.9739 101.927V93.6351C56.9739 89.0744 57.0195 85.3435 57.0754 85.3435C57.1313 85.3435 57.5048 85.5493 57.9053 85.8012C59.7716 86.9738 63.0669 87.8841 65.4465 87.8841C66.7848 87.8841 67.1281 87.6815 67.1281 86.8915C67.1281 86.1009 66.7035 85.8912 64.7354 85.7093C61.9987 85.4564 59.789 84.6541 57.9014 83.2277L56.9739 82.5267V73.747V64.967L57.5482 63.966C59.8378 59.9747 64.9274 57.166 69.3673 57.4431C72.0209 57.6086 73.6929 58.6299 74.6718 60.6818C75.4015 62.2122 75.547 64.566 74.9898 65.8267C74.4865 66.9657 73.5975 67.9618 72.395 68.7341C71.6005 69.2444 71.4241 69.4599 71.4241 69.9193C71.4241 70.2986 71.5783 70.5818 71.9004 70.7931C72.3395 71.0812 72.4333 71.0786 73.0984 70.7628C74.2495 70.2164 75.9864 68.4686 76.7132 67.1264C77.3562 65.9393 77.3793 65.8222 77.3797 63.747C77.3797 61.7473 77.3347 61.4925 76.7367 60.106C75.0669 56.2338 71.137 54.5377 66.1922 55.5547C63.2721 56.1554 60.0706 57.8554 58.1539 59.8238C57.675 60.3154 57.2135 60.7177 57.1287 60.7177C57.0433 60.7177 56.9739 52.9409 56.9739 43.436V26.1543L57.6143 25.3141C58.8865 23.6444 60.5402 22.9023 62.9297 22.9287C64.4611 22.9457 65.3353 23.1451 67.6442 24.0047C69.4081 24.6613 69.9442 24.5898 70.1757 23.6675C70.3575 22.9414 69.8533 22.515 68.0354 21.8583C65.9057 21.0888 64.4929 20.8162 62.6346 20.8162C60.8077 20.8162 59.3785 21.1922 58.09 22.0119C57.5761 22.3387 57.1146 22.606 57.0648 22.606C57.0147 22.606 56.9739 19.707 56.9739 16.164V9.72184L57.7062 9.53187C59.6525 9.02684 62.1849 9.01141 64.4919 9.49063ZM62.8074 32.403C62.4242 32.7863 62.4024 32.9487 62.5263 34.4775C62.8048 37.9108 64.1691 41.767 66.0262 44.3673C68.31 47.5654 72.0199 49.9647 76.3057 51.0157C78.4456 51.5406 80.1851 51.7193 83.1891 51.7231C85.8121 51.7267 86.1043 51.6922 86.4599 51.3364C86.9474 50.8483 86.9548 50.4635 86.4856 49.9938C86.1631 49.6709 85.6846 49.6164 82.336 49.5212C78.5484 49.4138 77.2361 49.2073 74.8273 48.3415C68.9164 46.2167 65.1802 41.0144 64.6551 34.1782C64.5526 32.8422 64.4585 32.5041 64.1258 32.2709C63.5766 31.8857 63.2962 31.9137 62.8074 32.403ZM44.3236 65.6525C44.1194 65.9012 44.0212 66.3002 44.0629 66.7122C44.0756 66.838 44.5234 67.4096 45.0578 67.9825C46.175 69.1796 47.1922 71.0535 47.3454 72.1973C47.4912 73.287 47.1063 74.3077 46.1594 75.3399C44.0512 77.6386 40.9052 77.7299 37.7293 75.5847C36.6485 74.8544 36.0033 74.817 35.5823 75.4602C35.0707 76.2418 35.8016 77.0793 37.9433 78.1647C41.5162 79.9757 44.7751 79.6096 47.4016 77.1022C48.818 75.7499 49.4549 74.3202 49.4465 72.5112C49.4411 71.2715 49.3483 70.927 48.6311 69.4783C47.2321 66.6518 45.0756 64.7367 44.3236 65.6525ZM65.3279 66.6102C64.6056 67.3822 63.8705 68.4557 63.364 69.4783C62.6468 70.927 62.554 71.2715 62.5485 72.5112C62.5402 74.3202 63.177 75.7499 64.5937 77.1022C67.22 79.6096 70.4789 79.9757 74.0517 78.1647C76.1936 77.0793 76.9246 76.2418 76.4129 75.4602C76.0034 74.8347 75.2577 74.8441 74.4175 75.4857C72.5158 76.9373 69.7454 77.5167 67.9628 76.8351C66.7501 76.3718 65.2788 74.976 64.8683 73.8999C64.2555 72.2941 65.0199 70.0341 66.8307 68.0993C67.3064 67.5909 67.782 67.0138 67.8874 66.8167C68.1825 66.2651 67.7258 65.5196 67.0449 65.4412C66.5706 65.3864 66.3027 65.5689 65.3279 66.6102Z" fill="white"/>
</g>
<defs>
<clipPath id="clip0_6888_26824">
<rect width="83.5052" height="100" fill="white" transform="translate(15 7)"/>
</clipPath>
</defs>
</svg>

<svg width="114" height="114" fill="none" xmlns="http://www.w3.org/2000/svg"><g clip-path="url(#a)"><path fill-rule="evenodd" clip-rule="evenodd" d="M47.733 7.255c-4.478.79-8.806 3.057-11.644 6.099-1.474 1.579-2.175 2.661-2.933 4.525l-.502 1.233-1.265.43c-4.789 1.625-9.214 8.042-9.934 14.406-.168 1.487 0 4.438.279 4.89.046.075-.282.39-.728.698-2.043 1.413-4.397 5.365-5.34 8.966-.702 2.684-.88 7.052-.384 9.48.407 1.998 1.273 4.445 2.024 5.724l.55.936-.92 1.835c-1.31 2.615-1.798 4.552-1.903 7.556-.153 4.354.883 7.918 3.419 11.76 1.212 1.836 3.613 4.168 5.372 5.218 1.453.868 1.476.894 1.71 1.955.353 1.604 1.293 3.742 2.367 5.39 4.071 6.242 12.246 9.652 20.085 8.38 2.181-.354 4.723-1.173 6.637-2.138l1.375-.692 1.374.692c1.914.965 4.456 1.784 6.637 2.138 7.84 1.272 16.014-2.138 20.085-8.38 1.074-1.648 2.014-3.786 2.367-5.39.234-1.06.257-1.087 1.71-1.955 1.76-1.05 4.16-3.382 5.372-5.218 2.536-3.842 3.572-7.406 3.42-11.76-.106-3.004-.594-4.94-1.905-7.556l-.92-1.835.551-.936c.752-1.279 1.617-3.726 2.024-5.725.495-2.427.318-6.795-.384-9.479-.943-3.6-3.297-7.553-5.34-8.966-.446-.308-.774-.623-.727-.698.046-.075.17-.831.275-1.68.478-3.853-.774-8.22-3.498-12.202-1.92-2.804-4.045-4.591-6.433-5.41l-1.265-.434-.502-1.233c-.757-1.864-1.46-2.946-2.933-4.525C71.32 8.438 63.22 5.886 57.218 7.466c-1.134.299-1.307.298-2.44-.003-1.661-.442-5.138-.545-7.045-.208Zm6.556 2.251.732.22v6.44c0 3.542-.04 6.44-.09 6.44-.05 0-.512-.267-1.026-.594-1.288-.82-2.718-1.196-4.544-1.196-1.859 0-3.272.273-5.401 1.042-1.818.657-2.322 1.083-2.14 1.81.23.922.767.993 2.531.337 2.268-.845 3.165-1.048 4.714-1.07 2.385-.035 4.042.707 5.316 2.38l.64.84v17.281c0 9.505-.046 17.282-.104 17.282-.056 0-.378-.314-.715-.697-.831-.949-2.557-2.254-4.102-3.104-3.17-1.744-8.154-2.995-9.032-2.266-.32.266-.394.928-.148 1.315.188.297 1.105.647 1.692.647.934 0 3.984 1.016 5.95 1.98 1.701.837 2.294 1.26 3.634 2.588.88.874 1.875 2.073 2.211 2.663l.61 1.076.003 8.827.001 8.827-.927.677c-2.02 1.473-4.057 2.202-6.885 2.463-1.918.177-2.342.39-2.342 1.177 0 .79.343.993 1.682.993 2.38 0 5.674-.91 7.54-2.083.402-.252.775-.457.83-.457.056 0 .102 3.73.102 8.291v8.292l-1.084.588c-1.405.761-3.35 1.496-5.067 1.912-1.972.479-6.336.48-8.374.002-3.318-.779-6.244-2.346-8.583-4.598-2.239-2.155-3.493-4.275-4.226-7.142l-.386-1.512.507-1.011c1.61-3.21 4.014-4.43 6.532-3.315 1.07.474 1.764 1.333 3.024 3.743 2.267 4.336 5.085 6.043 10.573 6.403 1.942.127 1.965.124 2.283-.361.24-.367.274-.614.135-.979-.233-.614-.557-.737-1.94-.737-.609 0-1.722-.123-2.474-.273-3.715-.74-4.856-1.674-7.137-5.846-1.247-2.282-2.373-3.42-3.975-4.02-1.258-.471-2.92-.57-4.131-.242-1.587.427-3.507 2.206-4.502 4.172l-.48.949-.806-.448c-1.223-.681-3.692-3.099-4.687-4.59-2.127-3.188-2.902-5.551-3.033-9.246-.079-2.208-.03-2.91.304-4.3.473-1.969.94-3.162 1.073-2.736 1.68 5.398 4.281 8.606 8.678 10.697 1.997.95 2.89 1.094 3.299.534.63-.863.237-1.336-1.83-2.197-3.69-1.537-6.332-4.423-7.676-8.383-.592-1.743-.654-2.14-.665-4.267-.011-2.07.042-2.467.454-3.379a5.194 5.194 0 0 1 3.303-2.849c1.13-.317 3.481-.393 4.627-.148.555.118.592.187.7 1.296.25 2.6 1.44 4.908 3.678 7.147 1.653 1.654 3.329 2.855 5.208 3.736 1.197.56 1.283.574 1.743.271.476-.311.63-.959.336-1.406-.08-.12-.54-.417-1.022-.66-4.225-2.13-7.196-5.45-7.801-8.718-.65-3.511 1.4-6.768 6.14-9.75 4.694-2.955 8.255-6.023 9.826-8.468 2.251-3.5 1.979-6.551-.817-9.17-2.73-2.555-5.471-2.972-9.43-1.433-1.846.717-4.08 2.043-4.484 2.661-.289.44-.288.518.006.967.445.68 1.029.62 2.488-.255 2.596-1.558 5.2-2.356 6.868-2.105 1.618.242 3.615 1.774 4.354 3.337.57 1.207.582 1.922.056 3.327-.99 2.65-3.903 5.374-9.986 9.342-3.575 2.331-5.108 3.837-6.243 6.13l-.806 1.629-1.787-.126c-4.305-.303-7.64 1.273-8.838 4.177-.189.456-.405.83-.482.83-.194.002-.88-2.294-1.151-3.848-.338-1.94-.116-6.434.407-8.268.723-2.536 2.134-5.23 3.51-6.702.674-.721 1.316-1.311 1.427-1.311.11 0 .63.401 1.154.892.525.49 1.544 1.17 2.266 1.51 1.14.535 1.57.627 3.268.691 1.718.066 2.145.012 3.515-.447 2.615-.874 4.587-2.124 4.587-2.91 0-.482-.54-1.105-.958-1.104-.171 0-.795.29-1.386.645-3.95 2.37-7.29 2.337-10.056-.1-1.057-.93-1.21-1.263-1.48-3.208-.86-6.182 4.57-15.054 9.577-15.647.54-.064 1.055-.214 1.146-.333.091-.12.372-.873.624-1.674 1.443-4.582 6.382-8.458 12.492-9.805 1.83-.403 5.508-.393 6.883.018Zm10.203-.015c4.717.98 8.973 3.622 11.2 6.954.53.793 1.116 1.902 1.303 2.464.333 1.005.331 1.043-.126 2.408-.617 1.838-.66 5.094-.09 6.832.377 1.15 1.453 2.97 2.243 3.79.555.576 1.292.567 1.678-.023.36-.55.231-.938-.768-2.325-1.457-2.022-1.936-4.92-1.185-7.181.392-1.182.65-1.226 2.233-.38 3.495 1.863 6.779 7.132 7.435 11.927.223 1.634 0 4.3-.402 4.783-.627.757-3.94 1.644-6.142 1.646-3.626.002-6.297-1.643-7.836-4.83-.404-.834-.862-1.67-1.02-1.858-.59-.708-1.59-.19-1.59.822 0 .78 1.401 3.484 2.386 4.604 3.308 3.762 9.051 4.417 15.131 1.727.344-.152 2.29 1.763 3.192 3.143 3.021 4.616 3.638 12.145 1.406 17.173l-.503 1.134-.635-1.19c-.833-1.56-2.148-3.082-3.621-4.19-1.27-.955-1.722-1.075-2.21-.587-.59.59-.337 1.055 1.622 2.978 2.462 2.418 3.197 3.8 3.309 6.224.153 3.31-1.285 6.013-5.046 9.485-1.805 1.666-2.021 2.08-1.43 2.733.551.61 1.1.419 2.551-.89 3.268-2.946 4.644-4.893 5.818-8.231.118-.336.187-.278.487.413 1.17 2.688 1.303 7.495.293 10.63-.639 1.981-1.211 3.16-2.403 4.946-.996 1.492-3.464 3.909-4.687 4.59l-.805.448-.519-1.024c-.701-1.386-2.457-3.184-3.706-3.795-2.078-1.018-5.11-.49-6.92 1.204-.541.507-1.311 1.599-1.944 2.756-2.28 4.172-3.422 5.107-7.137 5.846-.752.15-1.865.273-2.474.273-1.383 0-1.707.123-1.94.737-.138.365-.105.612.136.979.317.485.34.488 2.282.361 5.488-.36 8.306-2.067 10.573-6.403 1.26-2.41 1.954-3.269 3.025-3.743 2.517-1.115 4.922.106 6.53 3.315l.508 1.011-.386 1.512c-.733 2.867-1.987 4.987-4.226 7.142-2.34 2.252-5.265 3.819-8.583 4.598-2.038.478-6.402.477-8.374-.002-1.716-.416-3.662-1.151-5.066-1.912l-1.085-.588v-8.292c0-4.56.046-8.291.101-8.291.056 0 .43.205.83.457 1.867 1.173 5.162 2.083 7.541 2.083 1.339 0 1.682-.203 1.682-.993s-.424-1-2.393-1.182c-2.736-.253-4.946-1.055-6.834-2.481l-.927-.701v-17.56l.574-1.001c2.29-3.991 7.38-6.8 11.82-6.523 2.653.166 4.325 1.187 5.304 3.239.73 1.53.875 3.884.318 5.145-.503 1.139-1.392 2.135-2.595 2.907-.794.51-.97.726-.97 1.185 0 .38.153.663.475.874.44.288.533.286 1.198-.03 1.151-.547 2.888-2.294 3.615-3.637.643-1.187.666-1.304.667-3.379 0-2-.045-2.255-.643-3.641-1.67-3.872-5.6-5.568-10.545-4.551-2.92.6-6.121 2.3-8.038 4.269-.479.491-.94.894-1.025.894-.086 0-.155-7.777-.155-17.282V26.154l.64-.84c1.273-1.67 2.926-2.412 5.316-2.385 1.531.017 2.405.216 4.714 1.076 1.764.656 2.3.585 2.532-.337.181-.727-.323-1.153-2.14-1.81-2.13-.77-3.543-1.042-5.401-1.042-1.827 0-3.256.376-4.545 1.196-.514.327-.975.594-1.025.594-.05 0-.091-2.899-.091-6.442V9.722l.732-.19c1.947-.505 4.479-.52 6.786-.041Zm-1.685 22.912c-.383.383-.405.546-.28 2.075.278 3.433 1.642 7.289 3.5 9.89 2.283 3.197 5.993 5.597 10.279 6.648 2.14.525 3.88.703 6.883.707 2.623.004 2.915-.03 3.27-.387.488-.488.496-.872.027-1.342-.323-.323-.801-.378-4.15-.473-3.788-.107-5.1-.314-7.509-1.18-5.91-2.124-9.647-7.327-10.172-14.163-.102-1.336-.197-1.674-.53-1.907-.548-.385-.829-.357-1.318.132Zm-18.483 33.25c-.205.248-.303.647-.261 1.06.013.125.46.697.995 1.27 1.117 1.197 2.134 3.07 2.287 4.214.146 1.09-.239 2.11-1.186 3.143-2.108 2.299-5.254 2.39-8.43.245-1.08-.73-1.726-.768-2.147-.125-.511.782.22 1.62 2.361 2.705 3.573 1.81 6.832 1.445 9.459-1.063 1.416-1.352 2.053-2.782 2.044-4.59-.005-1.24-.098-1.585-.815-3.034-1.399-2.826-3.555-4.741-4.307-3.825Zm21.004.957c-.722.772-1.458 1.846-1.964 2.868-.717 1.449-.81 1.794-.816 3.033-.008 1.81.629 3.239 2.046 4.591 2.626 2.508 5.885 2.874 9.458 1.063 2.142-1.086 2.873-1.923 2.36-2.705-.409-.625-1.154-.616-1.995.026-1.901 1.451-4.672 2.03-6.454 1.35-1.213-.464-2.684-1.86-3.095-2.936-.612-1.606.152-3.866 1.963-5.8.475-.51.951-1.086 1.056-1.283.296-.552-.161-1.297-.842-1.376-.474-.055-.742.128-1.717 1.17Z" fill="#fff"/></g><defs><clipPath id="a"><path fill="#fff" transform="translate(15 7)" d="M0 0h83.505v100H0z"/></clipPath></defs></svg>
